X: 11
T:John Smith's
M:4/4
L:1/8
Q:220
Z:Brian Martin <brian_martin12345@yahoo.com> Winterbourn Downs Morris  (rcvd Jan 2003)
K:G
B2c2 | d2d2dcB2 | c2c2cBA2 | B2B2BAG2 | A2F2D4 | d2d2dcB2 | c2c2cBA2 | BAG2A2F2 |1 G4 :|2 G8 ||]
AGFED2D2 | AGFED4 | G4A4 | BcB2A4 | AGFED2D2 | AGFED4 | G2G2FGAF |1 G8 :|2 G4 |]
